X:1
T:God from on high hath heard - Barnby
T:James Gibb editions
%%score [ ( 1 2 ) ( 3 4 ) ]
L:1/8
Q:1/4=88
M:4/4
K:E
V:1 treble nm="Midi_74"
V:2 treble 
V:3 bass nm="Midi_74"
V:4 bass 
V:1
"^Via Crucis (66. 66)""^God from on high hath heard""^Joseph Barnby\n(1838-96)""^Charles Coffin\ntr. James Russell Woodford\n(1820-85)" E2 | %1
 G2 F2 E2 E2 | E6 || F2 | G2 B2 c3 c | B6 ||[M:4/4] A2 | G2 G2 A2!<(! B2 | c2!<)! d2 e2 || F2 | %10
 G4!>(! F4!>)! | E6 || A4 G4 |] %13
V:2
 B,2 | E2 D2 E2 C2 | B,6 || B,2 | B,2 E2 C2 F2 | D6 ||[M:4/4] F2 | E2 E2 E2 G2 | A2 F2 E2 || E2 | %10
 E4 D4 | E6 || E4 E4 |] %13
V:3
 G,2 | B,2 A,2 G,2 A,2 | G,6 || B,2 |"^cresc." B,2 B,2 B,2 ^A,2 | B,6 || %6
[M:4/4]"^1. God from on high hath heard;\nLet sighs and sorrows cease;\nLo! from the opening Heav’n descends\nTo man the promised Peace.\n\n2. Hark! through the silent night\nAngelic voices swell;\nTheir joyful songs proclaim that God\nIs born on earth to dwell.\n\n3. See how the shepherd band\nSpeed on with eager feet;\nCome to the hallowed cave with them\nThe Holy Babe to greet.\n\n4. But, oh, what sight appears\nWithin that lowly door!\nA manger, stall, and swaddling clothes,\nA Child and mother poor!" B,2 | %7
 B,2 B,2 E2 =D2 | C2 ^B,2 G,2 || %9
"^5. Art Thou the Christ? the Son?\nThe Fathers image bright?\nAnd see we Him whose arm upholds\nEarth and the starry height?\n\n6. Yea, faith can pierce the cloud\nWhich veils Thy glory now;\nWe hail Thee, God, before whose throne\nThe angels prostrate bow.\n\n7. A silent Teacher, Lord,\nThou biddst us not refuse\nTo bear what flesh would have us shun,\nTo shun what flesh would choose.\n\n8. Our sinful pride to cure\nWith that pure love of Thine,\nO be Thou born within our hearts,\nMost Holy Child divine." ^A,2 | %10
 B,4 A,4 | G,6 || C4 B,4 |] %13
V:4
 E,2 | E,2 B,,2 C,2 A,,2 | E,6 || D,2 | E,2 G,2 F,2 F,2 | B,6 ||[M:4/4] D,2 | E,2 =D,2 C,2 E,2 | %8
 A,,2 G,,2 C,2 || C,2 | B,,4 B,,4 | E,6 || A,,4 E,4 |] %13

